!!!!SEGMENT: pl-kc--40102-iii-1-saf--001-050_zielenski-mikolaj--offertoria-totius-anni-deo-gratias-cum-alleluia.krn
!!!cenid: 16xx:1529
!!!COM: Zieleński, Mikołaj
!!!COM-rismID: pe30013481
!!!CDT: <1611->1611
!!!CNT: Polish
!!!GTL: Offertoria totius anni
!!!OTL: Deo gratias cum Alleluia
!!!OMV: 050
!!!PDT: 1611
!!!AGN:
!!!YEC: Copyright 2022 Narodowy Instytut Fryderyka Chopina (https://polishscores.org)
!!!YEM: License CC-BY-4.0 (https://creativecommons.org/licenses/by/4.0)
!!!SMS-siglum: PL-Kc
!!!SMS-shelfmark: 40102 III/1 Saf.
!!!SMS-shelfwork: 001-050 G
!!!SMS-variant:
!!!SMS-altvar:
!!!NIFC-rismSourceID: 990069886
!!!NIFC-rismChildID: 990069886
!!!NIFC-islandoraID: none
!!!URL-pdf-islandora:
!!!URL-scan: https://cyfrowe.mnk.pl/dlibra/publication/24235/edition/23926/content?ref=desc @EN{Scan on The National Museum in Krakow Website} @PL{Skany w portalu Biblioteka Cyfrowa Muzeum Narodowego w Krakowie}
!!!IIIF:
!!!ONB-nifc: UWAGA: str. 42 (Alleluia-Deo gratias-Alleluia, do Anima mea Dominum). Uwaga: W xml metrum 2/1 do źródłowego C| i odpowiednio 3/1 do 3/2
!!!AIN: 4 organ
!!!key:
**kern	**kern	**kern	**kern
*group1	*group1	*group1	*group1
*part4	*part3	*part2	*part1
*staff4	*staff3	*staff2	*staff1
*I""Organo	*I""Organo	*I""Organo	*I""Organo
*I''org	*I''org	*I''org	*I''org
*Iorgan	*Iorgan	*Iorgan	*Iorgan
*ICklav	*ICklav	*ICklav	*ICklav
*clefF5	*clefC3	*clefF3	*clefG2
*k[b-]	*k[b-]	*k[b-]	*k[b-]
*F:	*F:	*F:	*F:
*M2/1	*M2/1	*M2/1	*M2/1
*met(C|)	*met(C|)	*met(C|)	*met(C|)
*	*	*	*MM100
=1	=1	=1	=1
!	!	!LO:TX:t=P:problem=zdwojony znak przykluczowy	!
!	!	!LO:TX:a:t=Alleluia.	!
1.FF	1.f	1.F	1.ff
2FF/	2f\	2F/	2cc\
=2-	=2-	=2-	=2-
0BB-	0f	0F	2.dd\
.	.	.	4ee\
.	.	.	1ff
=3-	=3-	=3-	=3-
0FFl	0fl	0Fl	0ffl
!!LO:LB:g=original
=4||	=4||	=4||	=4||
*clefF4	*clefC1	*clefF3	*clefG2
*k[b-]	*k[b-]	*k[b-]	*k[b-]
*	*M2/1	*M2/1	*M2/1
*	*met(C|)	*met(C|)	*met(C|)
!	!	!LO:TX:t=P:problem=zdwojony znak przykluczowy	!
!	!	!LO:TX:a:t=Deo gratias.	!
!	!	!LO:SIC:v:o=1.E	!
1.FF	1.a	1.F	1.cc
!	!	!LO:SIC:v:o=2E/	!
2FF/	2a\	2F/	2cc\
=5-	=5-	=5-	=5-
1.BB-	2.b-\	4D/	2dd\
.	.	4E/	.
.	.	4F/	4b-\
.	4a\	4G\	4cc\
.	4b-\	2A\	4dd\
.	4cc\	.	4ee\
2BB-/	[y2dd\	2D/	[<2ff\
=6	=6	=6	=6
!	!LO:N:xstem:cue	!	!
0GG	4dd\]	2D/	2ff\]
.	4g/	.	.
.	2.cc\	2E/	2ee\
.	.	1F	1dd
!	!LO:N:acc=#	!	!
.	8bn\	.	.
.	8a\	.	.
.	2b\	.	.
=7-	=7-	=7-	=7-
2.C/	0cc	2E/	2ee\
.	.	1E	4cc\
4BB-/	.	.	4dd\
2AA/	.	.	4ee\
.	.	.	4cc\
4GG/	.	2E/	[<2ff\
4FF/	.	.	.
=8	=8	=8	=8
1.C	1.cc	1.E	2ff\]
.	.	.	4ee\
.	.	.	4dd\
.	.	.	2ee\
2C/	2cc\	2E/	2ee\
=9-	=9-	=9-	=9-
0FFl	0ccl	0Al	0ffl
=10||	=10||	=10||	=10||
*clefF4	*clefC1	*clefF4	*clefG2
*k[b-]	*k[b-]	*k[b-]	*k[b-]
*M2/1	*M2/1	*M2/1	*M2/1
*met(C|)	*met(C|)	*met(C|)	*met(C|)
1.FF	1.cc	1.F	1.ff
2AA/	2cc\	2C/	2ee\
=11-	=11-	=11-	=11-
0.BB-	2.dd\	4D/	0.dd
.	.	4C/	.
.	.	4BB-/	.
.	4cc\	4C/	.
.	4b-\	4D/	.
.	4f/	4E\	.
.	4b-\	2F\	.
.	4cc\	.	.
=12-	=12-	=12-	=12-
.	2dd\	1BB-	.
.	1b-	.	.
[1FFl	.	[1Cl	[1ccl
.	4a\	.	.
.	4g/	.	.
=13-	=13-	=13-	=13-
0FF]	0al	0C]	0cc]
==	==	==	==
*-	*-	*-	*-
!!!system-decoration: *
!!!RDF**kern: < = below
!!!RDF**kern: l = terminal long
!!!ENC: Anastazja Marusiak
!!!END: 2021-12-16
!!!ENC: Marta Lawrence
!!!END: 2021-12-21
